X:290
T: Ballinahulla #1
S: "Where's the Crack v/1" (DJ Taylor)
Z: B.Black
L: 1/8
M: 2/4
R: polka
K: G
B^A/B/ =AG | EG GA | B^A/B/ B=A | AB d>e |
dB AG | EG GA | B^A/B/ dB |1 AG GA :|2 AG G2 ||
g>e dB | dB AG | gg/e/ dB | AB/c/ d2 |
ge dB | dB AG | B^A/B/ dB |1 AG G2 :|2 AG GA ||
